components/Company/logos/logo-threatstack.svg

<svg height="140" viewBox="0 0 400 140" width="400" xmlns="http://www.w3.org/2000/svg"><g fill="none" transform="translate(35 41)"><path d="m53.2.2c-2.4 0-4.4 2-4.4 4.4s2 4.4 4.4 4.4 4.4-2 4.4-4.4-2-4.4-4.4-4.4m-24.4-.2c-2.6 0-4.6 2.1-4.6 4.6 0 2.6 2.1 4.6 4.6 4.6 2.6 0 4.6-2.1 4.6-4.6s-2.1-4.6-4.6-4.6m0 12.4c-2.4 0-4.4 2-4.4 4.4s2 4.4 4.4 4.4 4.4-2 4.4-4.4-2-4.4-4.4-4.4m0 12.4c-2.3 0-4.2 1.9-4.2 4.2s1.9 4.2 4.2 4.2 4.2-1.9 4.2-4.2-1.9-4.2-4.2-4.2m0 24.9c-2.1 0-3.7 1.7-3.7 3.7 0 2.1 1.7 3.7 3.7 3.7 2.1 0 3.7-1.7 3.7-3.7 0-2.1-1.7-3.7-3.7-3.7m-24.4-49.5c-2.4 0-4.4 2-4.4 4.4s2 4.4 4.4 4.4 4.4-2 4.4-4.4-1.9-4.4-4.4-4.4m24.4 37c-2.2 0-3.9 1.8-3.9 3.9s1.8 3.9 3.9 3.9c2.2 0 3.9-1.8 3.9-3.9s-1.7-3.9-3.9-3.9" fill="#ea1947"/><path d="m53.2 13.1c-2.1 0-3.8 1.7-3.8 3.8s1.7 3.8 3.8 3.8 3.8-1.7 3.8-3.8c-.1-2.1-1.8-3.8-3.8-3.8m0 12.7c-1.8 0-3.3 1.5-3.3 3.3s1.5 3.3 3.3 3.3 3.2-1.5 3.2-3.3c0-1.9-1.5-3.3-3.2-3.3m0 12.6c-1.5 0-2.8 1.2-2.8 2.8 0 1.5 1.2 2.8 2.8 2.8 1.5 0 2.8-1.2 2.8-2.8-.1-1.5-1.3-2.8-2.8-2.8m-12.2-31.8c-2.2 0-4 1.8-4 4s1.8 4 4 4 4-1.8 4-4c-.1-2.2-1.8-4-4-4m0 12.4c-2.1 0-3.8 1.7-3.8 3.8s1.7 3.8 3.8 3.8 3.8-1.7 3.8-3.8c-.1-2.1-1.8-3.8-3.8-3.8m0 12.7c-1.8 0-3.3 1.5-3.3 3.3s1.5 3.3 3.3 3.3 3.3-1.5 3.3-3.3c-.1-1.9-1.5-3.3-3.3-3.3m0 12.6c-1.5 0-2.8 1.2-2.8 2.8 0 1.5 1.2 2.8 2.8 2.8 1.5 0 2.8-1.2 2.8-2.8 0-1.5-1.3-2.8-2.8-2.8m-24.4-37.7c-2.2 0-4 1.8-4 4s1.8 4 4 4 4-1.8 4-4-1.8-4-4-4m0 12.4c-2.1 0-3.8 1.7-3.8 3.8s1.7 3.8 3.8 3.8 3.8-1.7 3.8-3.8-1.7-3.8-3.8-3.8m0 12.7c-1.8 0-3.3 1.5-3.3 3.3s1.5 3.3 3.3 3.3 3.2-1.5 3.2-3.3c0-1.9-1.4-3.3-3.2-3.3m0 12.6c-1.5 0-2.8 1.2-2.8 2.8 0 1.5 1.2 2.8 2.8 2.8 1.5 0 2.8-1.2 2.8-2.8 0-1.5-1.3-2.8-2.8-2.8m-12.2-31.2c-2.1 0-3.8 1.7-3.8 3.8s1.7 3.8 3.8 3.8 3.8-1.7 3.8-3.8-1.7-3.8-3.8-3.8m0 12.7c-1.8 0-3.3 1.5-3.3 3.3s1.5 3.3 3.3 3.3 3.2-1.5 3.2-3.3c.1-1.9-1.4-3.3-3.2-3.3m0 12.6c-1.5 0-2.8 1.2-2.8 2.8 0 1.5 1.2 2.8 2.8 2.8 1.5 0 2.8-1.2 2.8-2.8 0-1.5-1.2-2.8-2.8-2.8" fill="#192b54"/><path d="m75.7 14.4h-2.8v22.5c0 4.5 2.1 6.8 6.3 6.8h4.2v-3.7h-3.1c-2 0-3-1.2-3-3.5v-14.4h6.1v-3.6h-6.8zm45.3 4.1h-3v25.2h4.4v-18.4c1.9-2.1 4.3-3.2 7.3-3.2v-3.7c-3.1 0-5.8 1.1-8 3.2zm16.4 10.1c.3-4.4 2.7-6.6 7.1-6.6 4.2 0 6.4 2.2 6.5 6.6zm7.2-10.1c-7.7 0-11.6 4.1-11.6 12.3 0 8.6 4.3 12.9 13 12.9 3.2 0 5.9-.3 8.1-1v-3.6c-2.2.6-4.8 1-7.6 1-6 0-9-2.6-9-7.7h17.7c.1-1.2.2-2.2.2-3.2-.1-7.2-3.7-10.7-10.8-10.7m32.3 19.1c-2.1 1.6-4.7 2.4-7.8 2.4-3 0-4.6-1.4-4.6-4.1s1.9-4.1 5.8-4.1c2.2 0 4.4.2 6.6.5zm-6.8-19.1c-2.6 0-5.2.4-8 1.2v3.6c2.7-.8 5.4-1.2 8-1.2 4.5 0 6.8 1.4 6.8 4.3v2.4c-2.2-.3-4.4-.5-6.6-.5-6.8 0-10.2 2.6-10.2 7.8 0 5.1 3 7.6 9 7.6 3 0 5.7-.8 8.2-2.5l1.5 2.5h2.5v-17.4c0-5.2-3.7-7.8-11.2-7.8m21.2-4.1h-2.8v22.5c0 4.5 2.1 6.8 6.3 6.8h4.2v-3.7h-3c-2 0-3-1.2-3-3.5v-14.4h6.1v-3.6h-6.8zm-89.9 4.1c-3.1 0-5.7.9-7.8 2.7l-1.7-6.8h-2.8v29.3h4.4v-18.4c2.3-2.1 4.7-3.2 7.2-3.2 3.7 0 5.6 1.9 5.6 5.6v15.9h4.4v-15.8c.1-6.2-3.1-9.3-9.3-9.3" fill="#ea1947"/><path d="m226.5 29h-3.6c-2.6 0-4-1.1-4-3.4 0-2.4 2.1-3.6 6.3-3.6 3 0 6 .5 8.9 1.4v-3.8c-3-.8-5.9-1.2-8.9-1.2-7 0-10.5 2.4-10.5 7.2 0 5 2.7 7.4 8.2 7.4h3.6c2.8 0 4.2 1.1 4.2 3.4 0 2.4-2 3.6-6 3.6-3 0-6-.5-9-1.4v3.8c3 .8 6 1.2 9 1.2 7 0 10.5-2.4 10.5-7.2-.1-4.9-3-7.4-8.7-7.4m17.4-14.6h-2.8v22.5c0 4.5 2.1 6.8 6.3 6.8h4.2v-3.7h-3.1c-2 0-3-1.2-3-3.5v-14.4h6.1v-3.6h-6.8zm29 23.2c-2.1 1.6-4.7 2.5-7.8 2.5-3 0-4.6-1.4-4.6-4.1s1.9-4.1 5.8-4.1c2.2 0 4.4.2 6.6.5zm-6.8-19.1c-2.6 0-5.2.4-8 1.2v3.6c2.7-.8 5.4-1.2 8-1.2 4.5 0 6.8 1.4 6.8 4.3v2.4c-2.2-.3-4.4-.5-6.6-.5-6.8 0-10.2 2.6-10.2 7.8 0 5.1 3 7.6 9 7.6 3 0 5.7-.8 8.2-2.5l1.5 2.5h2.5v-17.4c0-5.2-3.7-7.8-11.2-7.8m17.2 12.1c0 8.7 4.5 13.1 13.4 13.1 2.4 0 4.6-.2 6.7-.7v-3.6c-2.1.5-4.4.7-7 .7-5.8 0-8.8-3.2-8.8-9.5 0-5.7 2.9-8.5 8.8-8.5 2.6 0 4.9.2 7 .7v-3.6c-2.1-.5-4.3-.7-6.7-.7-8.9 0-13.4 4-13.4 12.1m25.8-16.2h4.4v29.3h-4.4zm21.5 4.1h-5.6l-9.5 12.6h.1l9.4 12.5h5.6l-9.6-12.5z" fill="#192b54"/></g></svg>

<?xml version="1.0" encoding="UTF-8"?>
<svg width="400px" height="140px" viewBox="0 0 400 140" version="1.1" xmlns="http://www.w3.org/2000/svg" xmlns:xlink="http://www.w3.org/1999/xlink">
    <title>Artboard</title>
    <g id="Artboard" stroke="none" stroke-width="1" fill="none" fill-rule="evenodd">
        <g id="threat-stack-logo" transform="translate(35.000000, 41.000000)" fill-rule="nonzero">
            <path d="M53.2,0.2 C50.8,0.2 48.8,2.2 48.8,4.6 C48.8,7 50.8,9 53.2,9 C55.6,9 57.6,7 57.6,4.6 C57.6,2.2 55.6,0.2 53.2,0.2 M28.8,0 C26.2,0 24.2,2.1 24.2,4.6 C24.2,7.2 26.3,9.2 28.8,9.2 C31.4,9.2 33.4,7.1 33.4,4.6 C33.4,2.1 31.3,0 28.8,0 M28.8,12.4 C26.4,12.4 24.4,14.4 24.4,16.8 C24.4,19.2 26.4,21.2 28.8,21.2 C31.2,21.2 33.2,19.2 33.2,16.8 C33.2,14.4 31.2,12.4 28.8,12.4 M28.8,24.8 C26.5,24.8 24.6,26.7 24.6,29 C24.6,31.3 26.5,33.2 28.8,33.2 C31.1,33.2 33,31.3 33,29 C33,26.7 31.1,24.8 28.8,24.8 M28.8,49.7 C26.7,49.7 25.1,51.4 25.1,53.4 C25.1,55.5 26.8,57.1 28.8,57.1 C30.9,57.1 32.5,55.4 32.5,53.4 C32.5,51.3 30.8,49.7 28.8,49.7 M4.4,0.2 C2,0.2 0,2.2 0,4.6 C0,7 2,9 4.4,9 C6.8,9 8.8,7 8.8,4.6 C8.8,2.2 6.9,0.2 4.4,0.2 M28.8,37.2 C26.6,37.2 24.9,39 24.9,41.1 C24.9,43.2 26.7,45 28.8,45 C31,45 32.7,43.2 32.7,41.1 C32.7,39 31,37.2 28.8,37.2" id="Shape" fill="#EA1947"></path>
            <path d="M53.2,13.1 C51.1,13.1 49.4,14.8 49.4,16.9 C49.4,19 51.1,20.7 53.2,20.7 C55.3,20.7 57,19 57,16.9 C56.9,14.8 55.2,13.1 53.2,13.1 M53.2,25.8 C51.4,25.8 49.9,27.3 49.9,29.1 C49.9,30.9 51.4,32.4 53.2,32.4 C55,32.4 56.4,30.9 56.4,29.1 C56.4,27.2 54.9,25.8 53.2,25.8 M53.2,38.4 C51.7,38.4 50.4,39.6 50.4,41.2 C50.4,42.7 51.6,44 53.2,44 C54.7,44 56,42.8 56,41.2 C55.9,39.7 54.7,38.4 53.2,38.4 M41,6.6 C38.8,6.6 37,8.4 37,10.6 C37,12.8 38.8,14.6 41,14.6 C43.2,14.6 45,12.8 45,10.6 C44.9,8.4 43.2,6.6 41,6.6 M41,19 C38.9,19 37.2,20.7 37.2,22.8 C37.2,24.9 38.9,26.6 41,26.6 C43.1,26.6 44.8,24.9 44.8,22.8 C44.7,20.7 43,19 41,19 M41,31.7 C39.2,31.7 37.7,33.2 37.7,35 C37.7,36.8 39.2,38.3 41,38.3 C42.8,38.3 44.3,36.8 44.3,35 C44.2,33.1 42.8,31.7 41,31.7 M41,44.3 C39.5,44.3 38.2,45.5 38.2,47.1 C38.2,48.6 39.4,49.9 41,49.9 C42.5,49.9 43.8,48.7 43.8,47.1 C43.8,45.6 42.5,44.3 41,44.3 M16.6,6.6 C14.4,6.6 12.6,8.4 12.6,10.6 C12.6,12.8 14.4,14.6 16.6,14.6 C18.8,14.6 20.6,12.8 20.6,10.6 C20.6,8.4 18.8,6.6 16.6,6.6 M16.6,19 C14.5,19 12.8,20.7 12.8,22.8 C12.8,24.9 14.5,26.6 16.6,26.6 C18.7,26.6 20.4,24.9 20.4,22.8 C20.4,20.7 18.7,19 16.6,19 M16.6,31.7 C14.8,31.7 13.3,33.2 13.3,35 C13.3,36.8 14.8,38.3 16.6,38.3 C18.4,38.3 19.8,36.8 19.8,35 C19.8,33.1 18.4,31.7 16.6,31.7 M16.6,44.3 C15.1,44.3 13.8,45.5 13.8,47.1 C13.8,48.6 15,49.9 16.6,49.9 C18.1,49.9 19.4,48.7 19.4,47.1 C19.4,45.6 18.1,44.3 16.6,44.3 M4.4,13.1 C2.3,13.1 0.6,14.8 0.6,16.9 C0.6,19 2.3,20.7 4.4,20.7 C6.5,20.7 8.2,19 8.2,16.9 C8.2,14.8 6.5,13.1 4.4,13.1 M4.4,25.8 C2.6,25.8 1.1,27.3 1.1,29.1 C1.1,30.9 2.6,32.4 4.4,32.4 C6.2,32.4 7.6,30.9 7.6,29.1 C7.7,27.2 6.2,25.8 4.4,25.8 M4.4,38.4 C2.9,38.4 1.6,39.6 1.6,41.2 C1.6,42.7 2.8,44 4.4,44 C5.9,44 7.2,42.8 7.2,41.2 C7.2,39.7 6,38.4 4.4,38.4" id="Shape" fill="#192B54"></path>
            <path d="M75.7,14.4 L72.9,14.4 L72.9,36.9 C72.9,41.4 75,43.7 79.2,43.7 L83.4,43.7 L83.4,40 L80.3,40 C78.3,40 77.3,38.8 77.3,36.5 L77.3,22.1 L83.4,22.1 L83.4,18.5 L76.6,18.5 L75.7,14.4 Z M121,18.5 L118,18.5 L118,43.7 L122.4,43.7 L122.4,25.3 C124.3,23.2 126.7,22.1 129.7,22.1 L129.7,18.4 C126.6,18.4 123.9,19.5 121.7,21.6 L121,18.5 L121,18.5 Z M137.4,28.6 C137.7,24.2 140.1,22 144.5,22 C148.7,22 150.9,24.2 151,28.6 L137.4,28.6 Z M144.6,18.5 C136.9,18.5 133,22.6 133,30.8 C133,39.4 137.3,43.7 146,43.7 C149.2,43.7 151.9,43.4 154.1,42.7 L154.1,39.1 C151.9,39.7 149.3,40.1 146.5,40.1 C140.5,40.1 137.5,37.5 137.5,32.4 L155.2,32.4 C155.3,31.2 155.4,30.2 155.4,29.2 C155.3,22 151.7,18.5 144.6,18.5 M176.9,37.6 C174.8,39.2 172.2,40 169.1,40 C166.1,40 164.5,38.6 164.5,35.9 C164.5,33.2 166.4,31.8 170.3,31.8 C172.5,31.8 174.7,32 176.9,32.3 L176.9,37.6 L176.9,37.6 Z M170.1,18.5 C167.5,18.5 164.9,18.9 162.1,19.7 L162.1,23.3 C164.8,22.5 167.5,22.1 170.1,22.1 C174.6,22.1 176.9,23.5 176.9,26.4 L176.9,28.8 C174.7,28.5 172.5,28.3 170.3,28.3 C163.5,28.3 160.1,30.9 160.1,36.1 C160.1,41.2 163.1,43.7 169.1,43.7 C172.1,43.7 174.8,42.9 177.3,41.2 L178.8,43.7 L181.3,43.7 L181.3,26.3 C181.3,21.1 177.6,18.5 170.1,18.5 M191.3,14.4 L188.5,14.4 L188.5,36.9 C188.5,41.4 190.6,43.7 194.8,43.7 L199,43.7 L199,40 L196,40 C194,40 193,38.8 193,36.5 L193,22.1 L199.1,22.1 L199.1,18.5 L192.3,18.5 L191.3,14.4 L191.3,14.4 Z M101.4,18.5 C98.3,18.5 95.7,19.4 93.6,21.2 L91.9,14.4 L89.1,14.4 L89.1,43.7 L93.5,43.7 L93.5,25.3 C95.8,23.2 98.2,22.1 100.7,22.1 C104.4,22.1 106.3,24 106.3,27.7 L106.3,43.6 L110.7,43.6 L110.7,27.8 C110.8,21.6 107.6,18.5 101.4,18.5" id="Shape" fill="#EA1947"></path>
            <path d="M226.5,29 L222.9,29 C220.3,29 218.9,27.9 218.9,25.6 C218.9,23.2 221,22 225.2,22 C228.2,22 231.2,22.5 234.1,23.4 L234.1,19.6 C231.1,18.8 228.2,18.4 225.2,18.4 C218.2,18.4 214.7,20.8 214.7,25.6 C214.7,30.6 217.4,33 222.9,33 L226.5,33 C229.3,33 230.7,34.1 230.7,36.4 C230.7,38.8 228.7,40 224.7,40 C221.7,40 218.7,39.5 215.7,38.6 L215.7,42.4 C218.7,43.2 221.7,43.6 224.7,43.6 C231.7,43.6 235.2,41.2 235.2,36.4 C235.1,31.5 232.2,29 226.5,29 M243.9,14.4 L241.1,14.4 L241.1,36.9 C241.1,41.4 243.2,43.7 247.4,43.7 L251.6,43.7 L251.6,40 L248.5,40 C246.5,40 245.5,38.8 245.5,36.5 L245.5,22.1 L251.6,22.1 L251.6,18.5 L244.8,18.5 L243.9,14.4 L243.9,14.4 Z M272.9,37.6 C270.8,39.2 268.2,40.1 265.1,40.1 C262.1,40.1 260.5,38.7 260.5,36 C260.5,33.3 262.4,31.9 266.3,31.9 C268.5,31.9 270.7,32.1 272.9,32.4 L272.9,37.6 Z M266.1,18.5 C263.5,18.5 260.9,18.9 258.1,19.7 L258.1,23.3 C260.8,22.5 263.5,22.1 266.1,22.1 C270.6,22.1 272.9,23.5 272.9,26.4 L272.9,28.8 C270.7,28.5 268.5,28.3 266.3,28.3 C259.5,28.3 256.1,30.9 256.1,36.1 C256.1,41.2 259.1,43.7 265.1,43.7 C268.1,43.7 270.8,42.9 273.3,41.2 L274.8,43.7 L277.3,43.7 L277.3,26.3 C277.3,21.1 273.6,18.5 266.1,18.5 M283.3,30.6 C283.3,39.3 287.8,43.7 296.7,43.7 C299.1,43.7 301.3,43.5 303.4,43 L303.4,39.4 C301.3,39.9 299,40.1 296.4,40.1 C290.6,40.1 287.6,36.9 287.6,30.6 C287.6,24.9 290.5,22.1 296.4,22.1 C299,22.1 301.3,22.3 303.4,22.8 L303.4,19.2 C301.3,18.7 299.1,18.5 296.7,18.5 C287.8,18.5 283.3,22.5 283.3,30.6 M309.1,14.4 L313.5,14.4 L313.5,43.7 L309.1,43.7 L309.1,14.4 Z M330.6,18.5 L325,18.5 L315.5,31.1 L315.6,31.1 L325,43.6 L330.6,43.6 L321,31.1 L330.6,18.5 Z" id="Shape" fill="#192B54"></path>
        </g>
    </g>
</svg>
